X: 1134
T: 
M: 4/4
L: 1/8
R: Strathspey / highland fling
K: D Major
|: A>G | 
F>D (3DDD F>DA<F | E>A, (3A,A,A, E>F (3GFE | 
F>D (3DDD F>DF<A | (3Bcd e>c d>B :| 
(3ABc | 
d>c (3efg f>d (3fed | ec (3ccc ec (3ABc |
[1 (3ddd eg f>dA<d | e>c (3ABc d2 :|
[2 a2 (3fga g2 (3efg | (3fgf e>c d2 |]
